dist/img/interships/internships_s3_icon_4.svg

<svg width="74" height="73" viewBox="0 0 74 73" fill="none" xmlns="http://www.w3.org/2000/svg"><g clip-path="url(#clip0_2872_2305)" fill="#08090A"><path d="M67.59 27.3c-1.68 0-3.36.59-4.56 1.9l-4.44 2.61h-8.04v-2.97c0-6.65-6.12-12.11-13.81-12.11-7.68 0-13.81 5.34-13.81 11.99 0 .83.72 1.54 1.56 1.54.84 0 1.56-.71 1.56-1.54 0-4.98 4.8-9.02 10.69-9.02 5.88 0 10.68 4.04 10.68 9.02v4.15c-1.44 1.19-1.92 3.2-1.32 4.87H27.25c.12-.48.24-.95.24-1.54 0-2.49-2.04-4.51-4.56-4.51h-7.92l-4.44-2.61c-1.2-1.19-2.88-1.9-4.68-1.9C2.52 27.3 0 29.91 0 33.23v18.16c0 3.32 2.76 6.05 6.12 6.05h8.64l9.96 14.24c.48.71 1.44.83 2.16.36.72-.47.84-1.42.36-2.14L16.81 55.07c-.24-.36-.72-.59-1.2-.59H6.12c-1.68 0-3-1.31-3-2.97V33.35c0-1.66 1.32-3.09 3.12-2.97.84 0 1.68.36 2.16 1.07l.36.36 5.04 2.97c.24.12.48.24.84.24h8.28c.84 0 1.56.71 1.56 1.54 0 .83-.72 1.54-1.56 1.54H13.8c-.24 0-.6-.12-.84-.24l-1.44-.83a1.78 1.78 0 00-1.56 0c-.48.24-.72.83-.72 1.31V50.2c0 .83.72 1.54 1.56 1.54h6.12c.36 0 .72.12.96.36l11.28 15.67c.48.71 1.44.83 2.16.36.72-.48.84-1.42.36-2.14C19.45 48.9 20.29 49.96 20.05 49.73c-.84-.83-2.04-1.3-3.24-1.3h-4.56V40.6c.48.12.96.24 1.56.24h21.37V71.1c0 .83.72 1.54 1.56 1.54.84 0 1.56-.71 1.56-1.54V40.83h21.37c.48 0 1.08-.12 1.56-.24v7.83h-4.56c-1.2 0-2.4.47-3.24 1.3-.12.12.6-.83-11.53 15.9-.48.71-.36 1.66.36 2.14.72.47 1.68.36 2.16-.36l11.29-15.67c.24-.24.6-.36.96-.36h6.12c.84 0 1.56-.71 1.56-1.54V37.98c0-.59-.24-1.07-.72-1.31a1.78 1.78 0 00-1.56 0l-1.44.83c-.24.12-.48.24-.84.24h-9.12c-.84 0-1.56-.71-1.56-1.54 0-.83.72-1.54 1.56-1.54h8.28c.24 0 .6-.12.84-.24l5.04-2.97.36-.36c.6-.71 1.44-1.07 2.4-1.07 1.68.12 3 1.42 3 2.97v18.16c0 1.66-1.32 2.97-3 2.97h-9.48c-.48 0-.96.24-1.2.59L46.46 69.55c-.48.71-.36 1.66.36 2.14.72.48 1.68.36 2.16-.36l9.96-14.24h8.4c3.36 0 6.12-2.73 6.12-6.05V33.35c.01-3.32-2.51-5.93-5.87-6.05z"/><path d="M65.79 25.75c4.2 0 7.68-3.44 7.68-7.6s-3.48-7.6-7.68-7.6c-4.2 0-7.68 3.44-7.68 7.6s3.48 7.6 7.68 7.6zm0-12.1c2.52 0 4.56 2.02 4.56 4.51 0 2.49-2.04 4.51-4.56 4.51-2.52 0-4.56-2.02-4.56-4.51 0-2.49 2.04-4.51 4.56-4.51zM7.68 25.75c4.2 0 7.68-3.44 7.68-7.6s-3.48-7.6-7.68-7.6C3.48 10.56 0 14 0 18.16s3.48 7.59 7.68 7.59zm0-12.1c2.52 0 4.56 2.02 4.56 4.51 0 2.49-2.04 4.51-4.56 4.51-2.52 0-4.56-2.02-4.56-4.51 0-2.49 2.04-4.51 4.56-4.51zm29.06 1.54c4.2 0 7.68-3.44 7.68-7.6S40.94 0 36.74 0c-4.2 0-7.68 3.44-7.68 7.6s3.48 7.59 7.68 7.59zm0-12.1c2.52 0 4.56 2.02 4.56 4.51 0 2.49-2.04 4.51-4.56 4.51-2.52 0-4.56-2.02-4.56-4.51-.01-2.5 2.04-4.51 4.56-4.51z"/></g><defs><clipPath id="clip0_2872_2305"><path fill="#fff" d="M0 0h73.47v72.63H0z"/></clipPath></defs></svg>

<svg width="74" height="73" viewBox="0 0 74 73" fill="none" xmlns="http://www.w3.org/2000/svg">
<g clip-path="url(#clip0_2872_2305)">
<path d="M67.59 27.3C65.91 27.3 64.23 27.89 63.03 29.2L58.59 31.81H50.55V28.84C50.55 22.19 44.43 16.73 36.74 16.73C29.06 16.73 22.93 22.07 22.93 28.72C22.93 29.55 23.65 30.26 24.49 30.26C25.33 30.26 26.05 29.55 26.05 28.72C26.05 23.74 30.85 19.7 36.74 19.7C42.62 19.7 47.42 23.74 47.42 28.72V32.87C45.98 34.06 45.5 36.07 46.1 37.74H27.25C27.37 37.26 27.49 36.79 27.49 36.2C27.49 33.71 25.45 31.69 22.93 31.69H15.01L10.57 29.08C9.37 27.89 7.69 27.18 5.89 27.18C2.52 27.3 0 29.91 0 33.23V51.39C0 54.71 2.76 57.44 6.12 57.44H14.76L24.72 71.68C25.2 72.39 26.16 72.51 26.88 72.04C27.6 71.57 27.72 70.62 27.24 69.9L16.81 55.07C16.57 54.71 16.09 54.48 15.61 54.48H6.12C4.44 54.48 3.12 53.17 3.12 51.51V33.35C3.12 31.69 4.44 30.26 6.24 30.38C7.08 30.38 7.92 30.74 8.4 31.45C8.52 31.57 8.64 31.69 8.76 31.81L13.8 34.78C14.04 34.9 14.28 35.02 14.64 35.02H22.92C23.76 35.02 24.48 35.73 24.48 36.56C24.48 37.39 23.76 38.1 22.92 38.1H13.8C13.56 38.1 13.2 37.98 12.96 37.86L11.52 37.03C11.04 36.79 10.44 36.79 9.96 37.03C9.48 37.27 9.24 37.86 9.24 38.34V50.2C9.24 51.03 9.96 51.74 10.8 51.74H16.92C17.28 51.74 17.64 51.86 17.88 52.1L29.16 67.77C29.64 68.48 30.6 68.6 31.32 68.13C32.04 67.65 32.16 66.71 31.68 65.99C19.45 48.9 20.29 49.96 20.05 49.73C19.21 48.9 18.01 48.43 16.81 48.43H12.25V40.6C12.73 40.72 13.21 40.84 13.81 40.84H35.18V71.1C35.18 71.93 35.9 72.64 36.74 72.64C37.58 72.64 38.3 71.93 38.3 71.1V40.83H59.67C60.15 40.83 60.75 40.71 61.23 40.59V48.42H56.67C55.47 48.42 54.27 48.89 53.43 49.72C53.31 49.84 54.03 48.89 41.9 65.62C41.42 66.33 41.54 67.28 42.26 67.76C42.98 68.23 43.94 68.12 44.42 67.4L55.71 51.73C55.95 51.49 56.31 51.37 56.67 51.37H62.79C63.63 51.37 64.35 50.66 64.35 49.83V37.98C64.35 37.39 64.11 36.91 63.63 36.67C63.15 36.43 62.55 36.43 62.07 36.67L60.63 37.5C60.39 37.62 60.15 37.74 59.79 37.74H50.67C49.83 37.74 49.11 37.03 49.11 36.2C49.11 35.37 49.83 34.66 50.67 34.66H58.95C59.19 34.66 59.55 34.54 59.79 34.42L64.83 31.45C64.95 31.33 65.07 31.21 65.19 31.09C65.79 30.38 66.63 30.02 67.59 30.02C69.27 30.14 70.59 31.44 70.59 32.99V51.15C70.59 52.81 69.27 54.12 67.59 54.12H58.11C57.63 54.12 57.15 54.36 56.91 54.71L46.46 69.55C45.98 70.26 46.1 71.21 46.82 71.69C47.54 72.17 48.5 72.05 48.98 71.33L58.94 57.09H67.34C70.7 57.09 73.46 54.36 73.46 51.04V33.35C73.47 30.03 70.95 27.42 67.59 27.3Z" fill="#08090A"/>
<path d="M65.79 25.75C69.99 25.75 73.47 22.31 73.47 18.15C73.47 13.99 69.99 10.55 65.79 10.55C61.59 10.55 58.11 13.99 58.11 18.15C58.11 22.31 61.59 25.75 65.79 25.75ZM65.79 13.65C68.31 13.65 70.35 15.67 70.35 18.16C70.35 20.65 68.31 22.67 65.79 22.67C63.27 22.67 61.23 20.65 61.23 18.16C61.23 15.67 63.27 13.65 65.79 13.65Z" fill="#08090A"/>
<path d="M7.68 25.75C11.88 25.75 15.36 22.31 15.36 18.15C15.36 13.99 11.88 10.55 7.68 10.55C3.48 10.56 0 14 0 18.16C0 22.32 3.48 25.75 7.68 25.75ZM7.68 13.65C10.2 13.65 12.24 15.67 12.24 18.16C12.24 20.65 10.2 22.67 7.68 22.67C5.16 22.67 3.12 20.65 3.12 18.16C3.12 15.67 5.16 13.65 7.68 13.65Z" fill="#08090A"/>
<path d="M36.7401 15.19C40.9401 15.19 44.4201 11.75 44.4201 7.59C44.4201 3.43 40.9401 0 36.7401 0C32.5401 0 29.0601 3.44 29.0601 7.6C29.0601 11.76 32.5401 15.19 36.7401 15.19ZM36.7401 3.09C39.2601 3.09 41.3001 5.11 41.3001 7.6C41.3001 10.09 39.2601 12.11 36.7401 12.11C34.2201 12.11 32.1801 10.09 32.1801 7.6C32.1701 5.1 34.2201 3.09 36.7401 3.09Z" fill="#08090A"/>
</g>
<defs>
<clipPath id="clip0_2872_2305">
<rect width="73.47" height="72.63" fill="white"/>
</clipPath>
</defs>
</svg>
